src/icons/conduct.svg

<svg width="16" height="16" viewBox="0 0 16 16" fill="none" xmlns="http://www.w3.org/2000/svg">
<path fill-rule="evenodd" clip-rule="evenodd" d="M2.5 2H12.5C12.6326 2 12.7598 2.05268 12.8536 2.14645C12.9473 2.24021 13 2.36739 13 2.5V13.5C13 13.6326 12.9473 13.7598 12.8536 13.8536C12.7598 13.9473 12.6326 14 12.5 14H2.5C2.36739 14 2.24021 13.9473 2.14645 13.8536C2.05268 13.7598 2 13.6326 2 13.5V2.5C2 2.36739 2.05268 2.24021 2.14645 2.14645C2.24021 2.05268 2.36739 2 2.5 2ZM3.5 3.5V12.5H11.5V3.5H10V5H8.5C8.5 4.73478 8.39464 4.48043 8.20711 4.29289C8.01957 4.10536 7.76522 4 7.5 4C7.23478 4 6.98043 4.10536 6.79289 4.29289C6.60536 4.48043 6.5 4.73478 6.5 5H5V3.5H3.5Z" fill="#FFCB6B"/>
<path d="M6.99995 10.5C6.93424 10.5001 6.86916 10.4873 6.80841 10.4622C6.74767 10.4372 6.69246 10.4004 6.64595 10.354L5.29395 9L5.99995 8.293L6.99995 9.293L8.99995 7.293L9.70694 8L7.35295 10.354C7.25924 10.4475 7.1323 10.5 6.99995 10.5Z" fill="#FF9CAC"/>
</svg>

<svg xmlns="http://www.w3.org/2000/svg" width="16" height="16" fill="none"><path fill="#FFCB6B" fill-rule="evenodd" d="M2.5 2h10a.5.5 0 0 1 .5.5v11a.5.5 0 0 1-.5.5h-10a.5.5 0 0 1-.5-.5v-11a.5.5 0 0 1 .5-.5m1 1.5v9h8v-9H10V5H8.5a1 1 0 1 0-2 0H5V3.5z" clip-rule="evenodd"/><path fill="#FF9CAC" d="M7 10.5a.5.5 0 0 1-.354-.146L5.294 9 6 8.293l1 1 2-2L9.707 8l-2.354 2.354A.5.5 0 0 1 7 10.5"/></svg>
